src/assets/brands/enkel.svg

<svg width="736" height="132" viewBox="0 0 736 132" fill="none" xmlns="http://www.w3.org/2000/svg">
<path d="M245.77 97.88V111.09H182.77V26.24H244.09V39.45H198.37V61.51H238.93V74.51H198.37V97.91L245.77 97.88ZM317.24 74V111.09H302.24V75.94C302.24 64.42 296.6 58.85 287 58.85C276.32 58.85 269.12 65.39 269.12 78.36V111.09H254.12V46.36H268.4V54.73C273.32 48.79 281.12 45.63 290.48 45.63C305.84 45.63 317.24 54.48 317.24 74V74ZM355.22 83.33L344.06 94V111.09H329.06V21.15H344.06V75.45L375.14 46.36H393.14L366.38 73.51L395.66 111.09H377.42L355.22 83.33Z" fill="white"/>
<path d="M455.84 83.57H405.56C407.36 93.03 415.16 99.09 426.32 99.09C433.52 99.09 439.16 96.79 443.72 92.09L451.72 101.42C446 108.3 437 111.94 426 111.94C404.52 111.94 390.6 98 390.6 78.73C390.6 59.46 404.6 45.63 423.72 45.63C442.44 45.63 456.12 58.85 456.12 79.09C456.08 80.3 456 82.12 455.84 83.57V83.57ZM405.44 73.51H441.8C440.6 64.18 433.52 57.76 423.68 57.76C413.84 57.76 406.88 64.06 405.44 73.51ZM463.83 21.15H478.83V111.09H463.83V21.15Z" fill="white"/>
<path d="M154.07 2.54C111.831 -0.850005 69.3888 -0.850005 27.15 2.54C25.21 26.7133 24.3833 50.8867 24.67 75.06L7.67 59.06L0 67.23L25 90.84C25.4133 103.707 26.13 116.58 27.15 129.46C69.3888 132.85 111.831 132.85 154.07 129.46C157.46 87.2212 157.46 44.7788 154.07 2.54V2.54ZM143.5 118.89C108.262 120.78 72.948 120.78 37.71 118.89C37.2433 109.97 36.89 101.05 36.65 92.13L100.39 40.22L128.3 65L135.76 56.59L100.7 25.47L36.38 77.85C36.1267 56.27 36.57 34.6867 37.71 13.1C72.9483 11.22 108.262 11.22 143.5 13.1C145.39 48.338 145.39 83.652 143.5 118.89Z" fill="white"/>
<path d="M62.24 86.76L69.54 95.3L99.62 69.57L127.44 94.25L134.9 85.84L99.75 54.66L62.24 86.76Z" fill="white"/>
<path d="M543 89.78C540.236 91.5287 536.996 92.3712 533.73 92.19H525.81V72.68H533.74C537.001 72.5006 540.237 73.3393 543 75.08C544.114 75.9538 545.016 77.0696 545.635 78.3429C546.255 79.6163 546.577 81.0139 546.577 82.43C546.577 83.8461 546.255 85.2437 545.635 86.5171C545.016 87.7904 544.114 88.9062 543 89.78V89.78ZM525.77 39.15H532.51C535.246 38.9978 537.954 39.769 540.2 41.34C541.148 42.167 541.908 43.1874 542.429 44.3328C542.95 45.4781 543.22 46.7218 543.22 47.98C543.22 49.2382 542.95 50.4819 542.429 51.6272C541.908 52.7726 541.148 53.7931 540.2 54.62C537.956 56.1924 535.246 56.9606 532.51 56.8H525.77V39.15ZM557.77 64.32C562.159 61.7426 565.578 57.7917 567.497 53.0775C569.417 48.3632 569.73 43.1481 568.39 38.2378C567.049 33.3275 564.129 28.9953 560.08 25.9103C556.032 22.8254 551.08 21.1595 545.99 21.17C545.3 21.17 544.61 21.17 543.94 21.28C543.27 21.39 542.32 21.19 541.43 21.17H498.3V111.07H550.46C556.177 111.096 561.713 109.073 566.066 105.368C570.42 101.662 573.301 96.52 574.189 90.8727C575.076 85.2254 573.911 79.447 570.905 74.585C567.898 69.7229 563.249 66.0989 557.8 64.37M617.82 21.16V111.06H683.05V86.69H647.4V21.16H617.82ZM578.75 21.16V111.08H608.35V21.16H578.75Z" fill="white"/>
<path d="M692.57 21.15H656.88V77.25H683.11V48.06C685.656 47.3693 688.314 47.1892 690.93 47.53C695.519 48.1304 699.75 50.3306 702.876 53.7433C706.003 57.156 707.825 61.5623 708.022 66.1865C708.219 70.8106 706.779 75.356 703.954 79.0225C701.129 82.6889 697.102 85.2412 692.58 86.23V111.09C704.223 110.665 715.246 105.741 723.333 97.3536C731.419 88.9665 735.937 77.7703 735.937 66.12C735.937 54.4697 731.419 43.2735 723.333 34.8865C715.246 26.4994 704.223 21.5753 692.58 21.15" fill="white"/>
</svg>

<svg xmlns="http://www.w3.org/2000/svg" xmlns:xlink="http://www.w3.org/1999/xlink" viewBox="0 0 736.9 132"><defs><style>.cls-1{fill:#505050;}.cls-2{fill:url(#Gradiente_sem_nome_4);}.cls-3{fill:url(#Gradiente_sem_nome_4-2);}.cls-4{fill:#e57200;}</style><linearGradient id="Gradiente_sem_nome_4" y1="66" x2="156.61" y2="66" gradientUnits="userSpaceOnUse"><stop offset="0" stop-color="#ffa54c"/><stop offset="0.71" stop-color="#e57200"/></linearGradient><linearGradient id="Gradiente_sem_nome_4-2" x1="62.24" y1="74.98" x2="134.9" y2="74.98" xlink:href="#Gradiente_sem_nome_4"/></defs><g id="Camada_2" data-name="Camada 2"><g id="Logo_Principal" data-name="Logo Principal"><g id="Logo-Enkel"><g id="Tipografia"><path class="cls-1" d="M245.77,97.88v13.21h-63V26.24h61.32V39.45H198.37V61.51h40.56v13H198.37v23.4Z"/><path class="cls-1" d="M317.24,74v37.09h-15V75.94c0-11.52-5.64-17.09-15.24-17.09-10.68,0-17.88,6.54-17.88,19.51v32.73h-15V46.36H268.4v8.37c4.92-5.94,12.72-9.1,22.08-9.1C305.84,45.63,317.24,54.48,317.24,74Z"/><path class="cls-1" d="M355.22,83.33,344.06,94v17.09h-15V21.15h15v54.3l31.08-29.09h18L366.38,73.51l29.28,37.58H377.42Z"/><path class="cls-1" d="M455.84,83.57H405.56c1.8,9.46,9.6,15.52,20.76,15.52,7.2,0,12.84-2.3,17.4-7l8,9.33C446,108.3,437,111.94,426,111.94c-21.48,0-35.4-13.94-35.4-33.21s14-33.1,33.12-33.1c18.72,0,32.4,13.22,32.4,33.46C456.08,80.3,456,82.12,455.84,83.57Zm-50.4-10.06H441.8c-1.2-9.33-8.28-15.75-18.12-15.75S406.88,64.06,405.44,73.51Z"/><path class="cls-1" d="M463.83,21.15h15v89.94h-15Z"/></g><g id="Icone"><path class="cls-2" d="M154.07,2.54a793.24,793.24,0,0,0-126.92,0Q24.24,38.8,24.67,75.06l-17-16L0,67.23,25,90.84q.62,19.3,2.15,38.62a793.24,793.24,0,0,0,126.92,0A793.24,793.24,0,0,0,154.07,2.54ZM143.5,118.89a987.62,987.62,0,0,1-105.79,0q-.7-13.38-1.06-26.76l63.74-51.91L128.3,65l7.46-8.41L100.7,25.47,36.38,77.85Q36,45.48,37.71,13.1a992.86,992.86,0,0,1,105.79,0A987.62,987.62,0,0,1,143.5,118.89Z"/><polygon class="cls-3" points="62.24 86.76 69.54 95.3 99.62 69.57 127.44 94.25 134.9 85.84 99.75 54.66 62.24 86.76"/></g><path class="cls-4" d="M543,89.78a15.71,15.71,0,0,1-9.27,2.41h-7.92V72.68h7.93a15.75,15.75,0,0,1,9.26,2.4,9.34,9.34,0,0,1,0,14.7ZM525.77,39.15h6.74a12.23,12.23,0,0,1,7.69,2.19,8.81,8.81,0,0,1,0,13.28,12.16,12.16,0,0,1-7.69,2.18h-6.74Zm32,25.17a23.17,23.17,0,0,0-11.78-43.15c-.69,0-1.38,0-2.05.11s-1.62-.09-2.51-.11H498.3v89.9h29.13l0,0,4.86,0h9c.34,0,.63,0,1,0l8.17,0a23.91,23.91,0,0,0,7.34-46.7"/><path class="cls-4" d="M617.82,21.16v89.9h33.72l25,0h6.51V86.69H647.4V21.16Z"/><path class="cls-4" d="M578.75,21.16v89.92l29.6,0V21.16Z"/><path class="cls-4" d="M692.57,21.15H656.88v56.1h26.23V48.06a20,20,0,0,1,7.82-.53,19.66,19.66,0,0,1,1.65,38.7v24.86a45,45,0,0,0,0-89.94"/></g></g></g></svg>
